X: 1
T: Into The Way
Z: Sergei Ejov
S: https://thesession.org/tunes/15878#setting29865
R: jig
M: 6/8
L: 1/8
K: Emin
|: E2 G ABg | eBA GAB | DFA dBf- | feB AGE |
|EGB ABg | eBA GAB |1 AcB GBB |FAB DEF :|2 BcA FCB, | ^DFA dcB ||
|: e2 B AGE | FGA Bde | e2 B gfe | BAG GAB |
|1 g2 B BAB | f2 A AGA | DFA def | gfe BAG :|
|2 e2 B AGE | F3 z3 ||
